actions/32/document-encrypted.svg

<svg xmlns="http://www.w3.org/2000/svg" viewBox="0 0 32 32">
  <defs id="defs3051">
<style type="text/css" id="current-color-scheme">.ColorScheme-Text {color:#fcfcfc;}</style>
  </defs>
 <path style="fill:currentColor;fill-opacity:1;stroke:none" 
     d="m 6,8 c 0,4 0,12 0,16 0,4 4,4 4,4 h 5 V 27 H 10 C 10,27 7,27 7,24 7,21 7,11 7,8 7,5 10,5 10,5 l 8,0 v 7 h 7 v 3 h 1 V 11 L 19,4 H 18 10 C 10,4 6,4 6,8 Z m 15,8 c -1.657,0 -3,1.343 -3,3 v 3 c 0,0 -2,0 -2,2 0,2 0,0 0,2 0,2 2,2 2,2 l 6,0 c 0,0 2,0 2,-2 0,-2 0,0 0,-2 0,-2 -2,-2 -2,-2 v -3 c 0,-1.657 -1.343,-3 -3,-3 z m 0,1 c 1.105,0 2,0.895 2,2 v 3 h -4 v -3 c 0,-1.105 0.895,-2 2,-2 z"
     class="ColorScheme-Text"
     />
</svg>

<svg xmlns="http://www.w3.org/2000/svg" viewBox="0 0 32 32">
  <defs id="defs3051">
    <style type="text/css" id="current-color-scheme">
      .ColorScheme-Text {
        color:#d8d8d8;
      }
      </style>
  </defs>
 <path style="fill:currentColor;fill-opacity:1;stroke:none" 
     d="M 6 4 L 6 28 L 15 28 L 15 27 L 7 27 L 7 5 L 18 5 L 18 12 L 25 12 L 25 15 L 26 15 L 26 11 L 19 4 L 18 4 L 6 4 z M 21 16 C 19.343 16 18 17.343 18 19 L 18 22 L 16 22 L 16 28 L 26 28 L 26 22 L 24 22 L 24 19 C 24 17.343 22.657 16 21 16 z M 21 17 C 22.105 17 23 17.895 23 19 L 23 22 L 19 22 L 19 19 C 19 17.895 19.895 17 21 17 z "
     class="ColorScheme-Text"
     />
</svg>
